resources/svg/icon-external.svg

<svg width="20" height="20" viewBox="0 0 20 20" fill="none" xmlns="http://www.w3.org/2000/svg">
<path d="M6.41673 14.75L14.7501 6.41667C15.0751 6.08334 15.0751 5.55834 14.7501 5.23334C14.4167 4.9 13.8917 4.9 13.5667 5.23334L5.2334 13.5667C4.90007 13.8917 4.90007 14.4167 5.2334 14.7417C5.5584 15.0667 6.0834 15.0667 6.4084 14.7417L6.41673 14.75ZM14.1584 4.99167H5.82506C5.3584 4.99167 4.99173 5.35834 4.99173 5.825C4.99173 6.28334 5.3584 6.65834 5.82506 6.65834H14.1584C14.6167 6.65834 14.9917 6.28334 14.9917 5.825C14.9917 5.35834 14.6167 4.99167 14.1584 4.99167ZM13.3251 5.825V14.1583C13.3251 14.6167 13.6917 14.9917 14.1584 14.9917C14.6167 14.9917 14.9917 14.6167 14.9917 14.1583V5.825C14.9917 5.35834 14.6167 4.99167 14.1584 4.99167C13.6917 4.99167 13.3251 5.35834 13.3251 5.825Z" fill="#1371FF"/>
</svg>

<svg xmlns="http://www.w3.org/2000/svg" width="20" height="20" fill="none">
  <path fill="#1371FF" d="m6.417 14.75 8.333-8.333a.84.84 0 0 0 0-1.184.825.825 0 0 0-1.183 0l-8.334 8.334a.815.815 0 0 0 0 1.175.83.83 0 0 0 1.175 0l.009.008Zm7.741-9.758H5.825a.825.825 0 0 0-.833.833.83.83 0 0 0 .833.833h8.333a.836.836 0 0 0 .834-.833.83.83 0 0 0-.834-.833Zm-.833.833v8.333a.83.83 0 0 0 .833.834.836.836 0 0 0 .834-.834V5.825a.83.83 0 0 0-.834-.833.825.825 0 0 0-.833.833Z"/>
</svg>
